resources/icons/cisco/gatekeeper.svg

<?xml version="1.0" encoding="UTF-8"?>
<svg xmlns="http://www.w3.org/2000/svg" xmlns:xlink="http://www.w3.org/1999/xlink" width="272pt" height="200pt" viewBox="0 0 272 200" version="1.1">
<g id="surface1">
<path style=" stroke:none;fill-rule:nonzero;fill:rgb(100%,100%,100%);fill-opacity:1;" d="M 92.097656 23.351562 C 46.078125 14.144531 21.792969 37.75 25.613281 58.144531 L 25.933594 59.253906 C -9.949219 65.367188 -0.542969 107.738281 16.664062 107.738281 L 18.351562 107.683594 C 14.039062 127.589844 55.941406 147.882812 79.3125 137.738281 L 80.824219 136.082031 C 89.148438 154.015625 118.773438 157 148.074219 157.753906 C 173.441406 158.410156 188.269531 156.371094 199.136719 145.25 L 200.8125 145.746094 C 241.445312 149.023438 259.960938 120.917969 251.074219 100.765625 L 253.265625 100.140625 C 267.113281 96.476562 268.71875 64.464844 244.949219 59.75 L 245.40625 58.5 C 255.707031 37.695312 231.394531 18.054688 197.617188 21.746094 L 195.289062 20.523438 C 171.109375 -1.367188 101.5625 2.1875 93.511719 23.855469 L 92.097656 23.351562 "/>
<path style="fill:none;stroke-width:0.5;stroke-linecap:butt;stroke-linejoin:miter;stroke:rgb(7.058824%,52.54902%,74.509804%);stroke-opacity:1;stroke-miterlimit:4;" d="M 16.591122 4.201875 C 8.300839 2.546016 3.925939 6.795 4.614157 10.466016 L 4.671861 10.665703 C -1.792322 11.766094 -0.0978142 19.392891 3.001982 19.392891 L 3.30598 19.383047 C 2.529096 22.966172 10.07768 26.618906 14.287914 24.792891 L 14.560245 24.494766 C 16.059829 27.722812 21.396685 28.259297 26.675135 28.395703 C 31.244959 28.513828 33.916202 28.148203 35.873894 26.145703 L 36.175781 26.232891 C 43.495663 26.824219 46.831198 21.765234 45.230282 18.137812 L 45.625057 18.025312 C 48.119672 17.367188 48.408892 11.603672 44.126881 10.755 L 44.209214 10.53 C 46.06487 6.785156 41.685044 3.249844 35.600155 3.914297 L 35.18075 3.694219 C 30.824851 -0.246094 18.296186 0.39375 16.845861 4.294688 Z M 16.591122 4.201875 " transform="matrix(5.55102,0,0,5.555556,0,0)"/>
<path style="fill:none;stroke-width:2.5;stroke-linecap:butt;stroke-linejoin:miter;stroke:rgb(7.058824%,52.54902%,74.509804%);stroke-opacity:1;stroke-miterlimit:4;" d="M 20.13073 10.226953 L 20.13073 31.374844 L 40.264275 31.374844 L 40.264275 10.018125 L 20.13073 10.227656 Z M 20.13073 10.226953 L 40.264275 31.374844 M 20.13073 31.374844 L 40.264275 10.018125 " transform="matrix(5.55102,0,0,5.555556,0,0)"/>
<path style=" stroke:none;fill-rule:nonzero;fill:rgb(100%,100%,100%);fill-opacity:1;" d="M 94.402344 73.601562 L 130.34375 73.601562 L 130.34375 36.988281 L 94.402344 36.988281 Z M 94.402344 73.601562 "/>
<path style="fill:none;stroke-width:0.5;stroke-linecap:butt;stroke-linejoin:miter;stroke:rgb(7.058824%,52.54902%,74.509804%);stroke-opacity:1;stroke-miterlimit:4;" d="M 17.006305 13.248984 L 23.481043 13.248984 L 23.481043 6.657891 L 17.006305 6.657891 Z M 17.006305 13.248984 " transform="matrix(5.55102,0,0,5.555556,0,0)"/>
<path style=" stroke:none;fill-rule:nonzero;fill:rgb(100%,100%,100%);fill-opacity:1;" d="M 205.421875 73.601562 L 241.363281 73.601562 L 241.363281 36.988281 L 205.421875 36.988281 Z M 205.421875 73.601562 "/>
<path style="fill:none;stroke-width:0.5;stroke-linecap:butt;stroke-linejoin:miter;stroke:rgb(7.058824%,52.54902%,74.509804%);stroke-opacity:1;stroke-miterlimit:4;" d="M 37.006147 13.248984 L 43.480885 13.248984 L 43.480885 6.657891 L 37.006147 6.657891 Z M 37.006147 13.248984 " transform="matrix(5.55102,0,0,5.555556,0,0)"/>
<path style=" stroke:none;fill-rule:nonzero;fill:rgb(100%,100%,100%);fill-opacity:1;" d="M 94.402344 193.050781 L 130.34375 193.050781 L 130.34375 156.433594 L 94.402344 156.433594 Z M 94.402344 193.050781 "/>
<path style="fill:none;stroke-width:0.5;stroke-linecap:butt;stroke-linejoin:miter;stroke:rgb(7.058824%,52.54902%,74.509804%);stroke-opacity:1;stroke-miterlimit:4;" d="M 17.006305 34.747734 L 23.481043 34.747734 L 23.481043 28.157344 L 17.006305 28.157344 Z M 17.006305 34.747734 " transform="matrix(5.55102,0,0,5.555556,0,0)"/>
<path style=" stroke:none;fill-rule:nonzero;fill:rgb(100%,100%,100%);fill-opacity:1;" d="M 205.421875 193.050781 L 241.363281 193.050781 L 241.363281 156.433594 L 205.421875 156.433594 Z M 205.421875 193.050781 "/>
<path style="fill:none;stroke-width:0.5;stroke-linecap:butt;stroke-linejoin:miter;stroke:rgb(7.058824%,52.54902%,74.509804%);stroke-opacity:1;stroke-miterlimit:4;" d="M 37.006147 34.747734 L 43.480885 34.747734 L 43.480885 28.157344 L 37.006147 28.157344 Z M 37.006147 34.747734 " transform="matrix(5.55102,0,0,5.555556,0,0)"/>
<path style="fill-rule:nonzero;fill:rgb(100%,100%,100%);fill-opacity:1;stroke-width:0.5;stroke-linecap:butt;stroke-linejoin:miter;stroke:rgb(7.058824%,52.54902%,74.509804%);stroke-opacity:1;stroke-miterlimit:4;" d="M 26.836282 24.001172 L 33.311021 24.001172 L 33.311021 17.405156 L 26.836282 17.405156 Z M 26.836282 24.001172 " transform="matrix(5.55102,0,0,5.555556,0,0)"/>
</g>
</svg>

<svg xmlns="http://www.w3.org/2000/svg" viewBox="0 0 48.75 36.25" height="36.25" width="48.75"><path d="M16.591 4.203C8.301 2.546 3.926 6.795 4.614 10.466l.058.2c-6.464 1.1-4.77 8.727-1.67 8.727l.304-.01c-.777 3.583 6.772 7.236 10.982 5.41l.272-.298c1.5 3.228 6.837 3.765 12.115 3.901 4.57.118 7.241-.249 9.199-2.251l.302.089c7.32.59 10.655-4.469 9.054-8.096l.395-.113c2.495-.659 2.784-6.421-1.498-7.27l.082-.225c1.856-3.745-2.524-7.28-8.609-6.616l-.419-.22c-4.356-3.94-16.885-3.3-18.335.6l-.255-.091" fill="#fff"/><path d="M16.591 4.202C8.301 2.546 3.926 6.795 4.614 10.466l.058.2c-6.464 1.1-4.77 8.727-1.67 8.727l.304-.01c-.777 3.583 6.772 7.236 10.982 5.41l.272-.298c1.5 3.228 6.837 3.764 12.115 3.901 4.57.118 7.241-.248 9.199-2.25l.302.087c7.32.591 10.655-4.468 9.054-8.095l.395-.113c2.495-.658 2.784-6.421-1.498-7.27l.082-.225c1.856-3.745-2.524-7.28-8.609-6.616l-.419-.22c-4.356-3.94-16.885-3.3-18.335.601l-.255-.093z" fill="none" stroke="#1286be" stroke-width=".5"/><path d="M20.131 10.227v21.148h20.133V10.018l-20.133.21zM20.131 10.227l20.133 21.148M20.131 31.375l20.133-21.357" fill="none" stroke="#1286be" stroke-width="2.5"/><path d="M17.006 13.248h6.475v-6.59h-6.475v6.59z" fill="#fff"/><path d="M17.006 13.249h6.475V6.658h-6.475v6.591z" fill="none" stroke="#1286be" stroke-width=".5"/><path d="M37.006 13.248h6.475v-6.59h-6.475v6.59z" fill="#fff"/><path d="M37.006 13.249h6.475V6.658h-6.475v6.591z" fill="none" stroke="#1286be" stroke-width=".5"/><path d="M17.006 34.749h6.475v-6.591h-6.475v6.59z" fill="#fff"/><path d="M17.006 34.748h6.475v-6.591h-6.475v6.59z" fill="none" stroke="#1286be" stroke-width=".5"/><path d="M37.006 34.749h6.475v-6.591h-6.475v6.59z" fill="#fff"/><path d="M37.006 34.748h6.475v-6.591h-6.475v6.59z" fill="none" stroke="#1286be" stroke-width=".5"/><path d="M26.836 24.001h6.475v-6.596h-6.475V24z" fill="#fff"/><path d="M26.836 24.001h6.475v-6.596h-6.475v6.596z" fill="none" stroke="#1286be" stroke-width=".5"/></svg>
